X:1
T:Title
%%score { ( 1 4 ) | ( 2 3 ) }
L:1/8
M:4/4
K:F
V:1 treble nm="Grand Piano"
V:4 treble 
V:2 bass 
V:3 bass 
V:1
 z4 z2[Q:1/4=100] C2 | F3 F F2 A2 | c3 d c3 [EA] | F3 F F2 EF | [CEG]2 [Ec]2 C2 C2 | F3 F F2 A2 | %6
 c3 d c3 d | e2 A2 =B2 c2 | [CA]4 z2 [Ec]2 | [Ed]3 [EB] [EG]2 F2 | E3 F [EG]2 [EB]2 | %11
 [Ed]3 [EB] [EG]2 [_E^F]2 | z4 z2 .c2 | A2 A2 B3 B | c2 f2 c3 [DFB] | [FA]2 [FA]2 [EA]3 G | F6 z2 | %17
[M:1/4] c2 |[M:4/4] f4 c3 c | [Ee]4 [EB]3 [EB] | [Ed]2 [Ed]2 [Ge]3 [Ed] |[M:7/8] d2 c2 c3 | %22
[M:1/8] A |[M:4/4] [Fd]4 [FA]3 [FA] | [Dc]4 [DB]3 [B,DG] | [A,CF]2 [A,CF]2 [CEA]3 [B,EG] | %26
[M:3/4] [A,F]6 |] %27
V:2
 z4 z2 [F,A,]2 | [F,A,C]3 [F,A,C] [F,A,C]2 [F,CF]2 | [F,A,F]3 [F,B,F] [F,A,F]3 [C,B,] | %3
 [D,A,D]3 [D,A,D] [G,=B,D]2 z D | C,2 [C,G,]2 C,2 [C,B,]2 | [F,A,C]3 [F,A,C] [F,A,C]2 [F,CF]2 | %6
 [F,A,F]3 [F,B,F] [F,A,F]3 [F,A,F] | [E,CE]2 [E,CE]2 [E,_A,D]2 [E,A,D]2 | [A,,A,]4 z2 [C,C]2 | %9
 [C,B,]3 [C,B,] [C,B,]2 [C,A,C]2 | [C,G,C]3 [C,A,C] [C,B,]2 [C,C]2 | [C,C]3 [C,C] [C,C]2 [C,C]2 | %12
 [C,C]6 [C,C]2 | [F,CF]2 [F,CF]2 [G,CE]3 [G,CE] | [A,C]2 [A,CF]2[K:bass] [F,A,F]3 B,, | %15
 [C,C]2 [C,C]2 [C,B,]3 [B,E] | [F,A,]6 z2 |[M:1/4] [F,A,F]2 |[M:4/4] [F,A,F]4 [F,A,F]3 [F,A,F] | %19
 [C,B,]4 [C,B,]3 [C,B,] | [C,B,]2 [C,B,]2 [C,B,]3 [C,B,] |[M:7/8] [F,B,F]2 [F,A,F]2 [F,A,F]3 | %22
[M:1/8] [F,CF] |[M:4/4] [D,A,]4 [D,D]3 [D,A,] | [B,,G,]4 [B,,G,]3 B,, | C,2 C,2 C,3 C, | %26
[M:3/4] F,6 |] %27
V:3
 x8 | x8 | x8 | z4 z2 [G,=B,]2 | x8 | x8 | x8 | x8 | x8 | x8 | x8 | x8 | x8 | x8 | x4[K:bass] x4 | %15
 x8 | x8 |[M:1/4] x2 |[M:4/4] x8 | x8 | x8 |[M:7/8] x7 |[M:1/8] x |[M:4/4] x8 | x8 | x8 | %26
[M:3/4] x6 |] %27
V:4
 x8 | x8 | x8 | x8 | x8 | x8 | x8 | x8 | x8 | x8 | x8 | x8 | [EG]6 E-[EB] | x8 | x8 | x8 | x8 | %17
[M:1/4] x2 |[M:4/4] x8 | x8 | x8 |[M:7/8] x7 |[M:1/8] x |[M:4/4] x8 | x8 | x8 |[M:3/4] x6 |] %27

